X: 6558
T: Catherine And Thurlow's
R: jig
M: 6/8
K: Gmajor
c|BAG dBG|ceg {b}gec|BAG dBG|FAF D2 c|
BAG dBG|ceg {b}gec|BdB cAF|AGG G2 c|
BAG dBG|gba gdc|BAG dBG|FAF D2 c|
BAG dBG|ceg {b}gec|BdB cAF|AGG G2||
g|(g<b2) g a2 f|gfe efg|dBG BAG|EAA A2 g|
(g<b2) g a2 f|gfe efg|dBG cBA|BGG G2 g|
(g<b2) g a2 f|gfe efg|dBG BAG|EAA A2 c|
BAG dBG|ceg {b}gec|BdB cAF|AGG G2||

